X: 100023
M: C|
L: 1/8
K: G
(uDC) |\
(3B,DG, (3B,DG (3FAc (3GBd | efga be'd'd |\
(3Dd^c (3dAF (3D=cB (3cAF | (3DBB, (3CED G,2 :|
|: (uAG) |\
(3FDF (3cAF (3GDG (3BGD | (e>c)A>e (d>B)G>d |\
(c>B)A>^G (A>E)A>=G | Fd E^c d(def) |
(3gdc (3BAG (3ecA (3dBG | (3cAF (3DFA (3BGg (3dBG |\
(e>d) (3cBA (3GFE (3DFA |1 (3GBd (3gdB G2 :|2 ((3GBd (3gbd' "_D.C."g'2) |]


